app/images/blog/author.svg

<?xml version="1.0" encoding="UTF-8"?>
<svg xmlns="http://www.w3.org/2000/svg" xmlns:xlink="http://www.w3.org/1999/xlink" width="12pt" height="15pt" viewBox="0 0 12 15" version="1.1">
<g id="surface1">
<path style=" stroke:none;fill-rule:nonzero;fill:rgb(19.607843%,23.137255%,35.294118%);fill-opacity:1;" d="M 6 0 C 8.066406 0 9.738281 1.625 9.738281 3.632812 C 9.738281 5.644531 8.066406 7.269531 6 7.269531 C 3.9375 7.269531 2.265625 5.644531 2.265625 3.632812 C 2.265625 1.625 3.9375 0 6 0 Z M 6 0 "/>
<path style=" stroke:none;fill-rule:nonzero;fill:rgb(19.607843%,23.137255%,35.294118%);fill-opacity:1;" d="M 12 15 L 0 15 L 0 13.023438 C 0 10.441406 1.671875 8.253906 4 7.4375 L 6 10.03125 L 8 7.4375 C 10.332031 8.253906 12 10.441406 12 13.023438 Z M 12 15 "/>
</g>
</svg>

<svg xmlns="http://www.w3.org/2000/svg" width="16" height="20" viewBox="0 0 12 15"><path d="M6 0c2.066 0 3.738 1.625 3.738 3.633C9.738 5.645 8.066 7.27 6 7.27c-2.063 0-3.734-1.625-3.734-3.637C2.266 1.625 3.937 0 6 0zm6 15H0v-1.977c0-2.582 1.672-4.77 4-5.585l2 2.593 2-2.594c2.332.817 4 3.004 4 5.586zm0 0" id="surface1" fill="#323b5a"/></svg>
